X: 770
T: Over The Waterfall
B: jims roots
M:4/4
L:1/8
R: reel
Q: 1/4=100
K:Dmaj
V:1 
%Z: Jim Kendrick
de|:"D"f2a2 gfe2 | d2 B2 A2de | f2a2 "A"gfe2 | "D"[d2f2][df][df] [d2f2]de |
f2a2 gfe2 | d2 B2 A2 AB | "C"=c2cc B2A2 | "G"[G2D2][GD][GD][G2D2]:|
FG |: "D"A4 "G"B4 | "D"ABAG F2FG | "D"A2 G2 "A"F2 E2 | "D"D2DDD2 FG |
"D"A4 "G"B4 | "D"ABAG "A"F2FG | A2d2 "A"cde2 |"D"[d2f2][df][df] [d2f2] :|
% abcbook-tune_id 6298c279c55883e8d0a9c31b


% abcbook-boost 0
% abcbook-tablature 
% abcbook-transpose 
% abcbook-lastupdated 1654178426268
% abcbook-soundfonts 
% abcbook-repeats 1


